src/images/crypto-icon-svg/nxs.svg

<svg xmlns="http://www.w3.org/2000/svg" width="32" height="32" viewBox="0 0 32 32">
  <g fill="none" fill-rule="evenodd">
    <circle cx="16" cy="16" r="16" fill="#4099CD"/>
    <path fill="#FFF" d="M2.00452533,23.760164 C2.61035485,21.995974 3.77614821,20.0861003 5.39977311,18.1998929 C5.14874616,17.8656471 5,17.4501943 5,17 C5,15.8954305 5.8954305,15 7,15 C7.44458672,15 7.85529199,15.1450637 8.18736522,15.3904405 C9.41776878,14.3030632 10.793332,13.254594 12.2922533,12.2811831 C19.2260882,7.77829809 26.5535515,6.34019537 30.1277996,8.4829133 C31.1330674,10.3683034 31.7719623,12.4786115 31.949451,14.7188044 C30.7952753,18.4974313 26.9832684,23.0109023 21.5511169,26.5385828 C17.8036018,28.9722475 13.9411057,30.5106724 10.6183059,31.0723885 C6.9373342,29.7579521 3.87887916,27.1333491 2.00452533,23.760164 Z M5.75427649,18.5647613 C3.41095985,21.2732714 2.47173039,24.0589943 3.60797995,25.8086652 C5.32446988,28.4518279 11.1274149,27.7297022 16.5692205,24.1957524 C22.0110261,20.6618025 25.0309911,15.6542634 23.3145012,13.0111007 C21.5980112,10.367938 15.7950662,11.0900636 10.3532606,14.6240135 C9.74987145,15.015859 9.17625749,15.4258215 8.63557402,15.8486689 C8.86515605,16.1742142 9,16.5713599 9,17 C9,18.1045695 8.1045695,19 7,19 C6.52899355,19 6.09601503,18.8371831 5.75427649,18.5647613 Z"/>
  </g>
</svg>

<svg xmlns="http://www.w3.org/2000/svg" width="32" height="32"><g fill="none" fill-rule="evenodd"><circle cx="16" cy="16" r="16" fill="#4099CD"/><path fill="#FFF" d="M2.005 23.76c.605-1.764 1.771-3.674 3.395-5.56a2 2 0 0 1 2.788-2.81 34.973 34.973 0 0 1 4.104-3.109c6.934-4.503 14.262-5.94 17.836-3.798a15.9 15.9 0 0 1 1.821 6.236c-1.154 3.778-4.966 8.292-10.398 11.82-3.747 2.433-7.61 3.972-10.933 4.533a16.052 16.052 0 0 1-8.613-7.312zm3.75-5.195c-2.344 2.708-3.283 5.494-2.147 7.244 1.716 2.643 7.52 1.92 12.961-1.613 5.442-3.534 8.462-8.542 6.746-11.185-1.717-2.643-7.52-1.92-12.962 1.613-.603.392-1.177.802-1.717 1.225a2 2 0 0 1-2.881 2.716z"/></g></svg>
